X: 12069
T: Esther's
R: reel
M: 4/4
K: Dmajor
g3 e fe d2|efga gfef|eBBB dBAF|GBAF GEEE|
gBeg fagf|efga g3 f|edBe dBAF|GBAF GFED||
CDEF GABc|dDDD A,DFD|EFGA BAGF|EBAF GFED|
EFGA Bdce|dDDD ADFD|EFGA BAGF|EBAF GEEE||

